; generated by PrusaSlicer 2.6.0+win64 on 2023-07-07 at 05:12:21 UTC


;
;
; 

; external perimeters extrusion width = 0.45mm
; perimeters extrusion width = 0.45mm
; infill extrusion width = 0.45mm
; solid infill extrusion width = 0.45mm
; top infill extrusion width = 0.40mm
; first layer extrusion width = 0.42mm

M73 P0 R70
M73 Q0 S70
M201 X1000 Y1000 Z200 E5000 ; sets maximum accelerations, mm/sec^2
M203 X200 Y200 Z12 E120 ; sets maximum feedrates, mm / sec
M204 S1250 T1250 ; sets acceleration (S) and retract acceleration (R), mm/sec^2
M205 X8.00 Y8.00 Z0.40 E4.50 ; sets the jerk limits, mm/sec
M205 S0 T0 ; sets the minimum extruding and travel feed rate, mm/sec
;TYPE:Custom
M862.3 P "MK3" ; printer model check
M862.1 P0.4 ; nozzle diameter check
M115 U3.12.2 ; tell printer latest fw version
G90 ; use absolute coordinates
M83 ; extruder relative mode
M104 S215 ; set extruder temp
M140 S70 ; set bed temp
M190 S70 ; wait for bed temp
M109 S215 ; wait for extruder temp
G28 W ; home all without mesh bed level
G80 ; mesh bed leveling

G1 Z0.2 F720
G1 Y-3 F1000 ; go outside print area
G92 E0
G1 X60 E9 F1000 ; intro line
G1 X100 E12.5 F1000 ; intro line

G92 E0
M221 S95

; Don't change E values below. Excessive value can damage the printer.
M907 E430 ; set extruder motor current
G21 ; set units to millimeters
G90 ; use absolute coordinates
M83 ; use relative distances for extrusion
M900 K0.05 ; Filament gcode LA 1.5
M900 K30 ; Filament gcode LA 1.0
M107
;LAYER_CHANGE
;Z:0.2
;HEIGHT:0.2
;BEFORE_LAYER_CHANGE
G92 E0.0
;0.2


G1 E-.8 F2100
G1 Z.4 F720
;AFTER_LAYER_CHANGE
;0.2
G1 X75.548 Y88.693 F10800
G1 Z.2 F720
G1 E.8 F2100
M204 S800
;TYPE:Skirt/Brim
;WIDTH:0.42
G1 F1200
G1 X77.031 Y87.677 E.05636
G1 X121.96 Y77.955 E1.44132
G1 X123.612 Y77.696 E.05243
G1 X125.291 Y77.633 E.05268
G1 X126.709 Y77.724 E.04455
G1 X128.107 Y77.955 E.04443
G1 X172.97 Y87.677 E1.4393
G1 X174.165 Y88.336 E.04279
G1 X174.844 Y90 E.05635
G1 X174.844 Y130 E1.25417
G1 X174.452 Y131.307 E.04278
G1 X173.407 Y132.183 E.04275
G1 X172.467 Y132.377 E.03009
G1 X77.533 Y132.377 E2.97659
G1 X76.226 Y131.985 E.04278
G1 X75.35 Y130.94 E.04275
G1 X75.156 Y130 E.03009
G1 X75.156 Y90 E1.25417
G1 X75.53 Y88.75 E.04091
M204 S1000
; printing object Encloser ListenV1.4 IOPort.stl id:0 copy 0
;WIPE_START
G1 F8640
G1 X77.031 Y87.677 E-.42603
G1 X78.614 Y87.334 E-.37397
;WIPE_END
G1 Z.6 F720
G1 X151.166 Y111.217 F10800
G1 Z.2 F720
G1 E.8 F2100
M204 S800
;TYPE:Perimeter
;WIDTH:0.512046
G1 F1200
G1 X150.972 Y111.208 E.00758
;WIDTH:0.466023
G1 X150.779 Y111.199 E.0068
;WIDTH:0.419999
G1 X150.453 Y111.363 E.01144
G1 X149.782 Y111.884 E.02664
G1 X149.797 Y111.643 E.00757
G1 X149.8 Y109.871 E.05556
G1 X149.975 Y110.178 E.01108
G1 X150.312 Y110.565 E.01609
G1 X150.556 Y110.766 E.00991
;WIDTH:0.466023
G1 X150.861 Y110.992 E.01335
;WIDTH:0.512046
G1 X151.118 Y111.181 E.01244
M204 S1000
;WIPE_START
G1 F8640
G1 X150.972 Y111.208 E-.03428
G1 X150.779 Y111.199 E-.04461
G1 X150.453 Y111.363 E-.08426
G1 X149.782 Y111.884 E-.19616
G1 X149.797 Y111.643 E-.05576
G1 X149.8 Y109.976 E-.38493
;WIPE_END
G1 Z.6 F720
G1 X154.973 Y112.164 F10800
G1 Z.2 F720
G1 E.8 F2100
M204 S800
;WIDTH:0.419999
G1 F1200
G1 X154.94 Y112.254 E.00301
G1 X154.634 Y112.458 E.01153
G1 X154.317 Y112.531 E.0102
G1 X153.737 Y112.58 E.01825
G1 X153.269 Y112.536 E.01474
;WIDTH:0.464562
G1 X153.16 Y112.484 E.00423
;WIDTH:0.509125
G1 X153.052 Y112.432 E.00465
;WIDTH:0.553688
G1 X152.944 Y112.381 E.00507
;WIDTH:0.59825
G1 X152.655 Y112.276 E.0142
;WIDTH:0.58821
G1 X152.214 Y112.031 E.02287
G1 X151.889 Y111.717 E.02049
G1 X151.421 Y111.376 E.02625
;WIDTH:0.565347
G1 X151.557 Y111.435 E.00644
;WIDTH:0.58821
G1 X152.366 Y111.646 E.03791
;WIDTH:0.59825
G1 X152.969 Y111.791 E.02864
G1 X153.074 Y111.787 E.00485
;WIDTH:0.553746
G1 X153.18 Y111.783 E.00451
;WIDTH:0.509242
G1 X153.286 Y111.779 E.00411
;WIDTH:0.464737
G1 X153.77 Y111.842 E.01712
;WIDTH:0.419999
G1 X154.346 Y111.959 E.01843
G1 X154.916 Y112.145 E.0188
M204 S1000
;WIPE_START
G1 F8640
G1 X154.94 Y112.254 E-.02577
G1 X154.634 Y112.458 E-.08492
G1 X154.317 Y112.531 E-.07511
G1 X153.737 Y112.58 E-.1344
G1 X153.269 Y112.536 E-.10854
G1 X153.16 Y112.484 E-.02789
G1 X153.052 Y112.432 E-.02768
G1 X152.944 Y112.381 E-.02758
G1 X152.655 Y112.276 E-.071
G1 X152.214 Y112.031 E-.11649
G1 X151.901 Y111.728 E-.10062
;WIPE_END
G1 Z.6 F720
G1 X157.801 Y107.2 F10800
G1 Z.2 F720
G1 E.8 F2100
M204 S800
G1 F1200
G1 X158.009 Y106.804 E.01402
G1 X158.144 Y106.636 E.00676
G1 X158.646 Y106.211 E.02062
G1 X159.12 Y105.913 E.01756
G1 X159.899 Y105.559 E.02683
G1 X160.597 Y105.385 E.02256
G1 X161.591 Y105.32 E.03123
G1 X162.545 Y105.402 E.03002
G1 X163.478 Y105.628 E.0301
G1 X164.385 Y105.998 E.03071
G1 X164.993 Y106.414 E.0231
G1 X165.597 Y107.007 E.02654
G1 X165.725 Y107.203 E.00734
G1 X165.761 Y107.452 E.00789
G1 X165.68 Y107.702 E.00824
G1 X165.419 Y108.131 E.01574
G1 X165.068 Y108.532 E.01671
G1 X164.724 Y108.798 E.01363
G1 X164.339 Y109.011 E.0138
G1 X163.934 Y109.047 E.01275
;WIDTH:0.387009
G1 X163.82 Y109.007 E.00346
;WIDTH:0.426936
G1 X163.505 Y108.872 E.01094
;WIDTH:0.466862
G1 X163.19 Y108.737 E.01208
;WIDTH:0.506789
G1 X162.876 Y108.602 E.01318
;WIDTH:0.546715
G1 X162.561 Y108.467 E.01436
G1 X162.017 Y108.347 E.02334
;WIDTH:0.537179
G1 X161.457 Y108.339 E.02302
G1 X160.901 Y108.443 E.02325
G1 X160.665 Y108.536 E.01042
G1 X161.913 Y108.83 E.05269
;WIDTH:0.546715
G1 X162.391 Y108.937 E.02052
G1 X162.719 Y109.035 E.01434
;WIDTH:0.506789
G1 X163.047 Y109.133 E.0132
;WIDTH:0.466862
G1 X163.375 Y109.23 E.01206
;WIDTH:0.426936
G1 X163.703 Y109.328 E.01093
;WIDTH:0.419999
G1 X164.361 Y109.592 E.02223
G1 X164.859 Y109.911 E.01854
G1 X165.348 Y110.368 E.02099
G1 X165.686 Y110.887 E.01942
G1 X165.903 Y111.515 E.02083
G1 X165.959 Y112.152 E.02005
G1 X165.884 Y112.801 E.02048
G1 X165.696 Y113.469 E.02176
G1 X165.26 Y114.152 E.02541
G1 X164.749 Y114.657 E.02253
G1 X164.14 Y115.047 E.02267
G1 X163.458 Y115.31 E.02292
G1 X162.759 Y115.461 E.02242
G1 X161.958 Y115.538 E.02523
G1 X161.434 Y115.541 E.01643
G1 X160.779 Y115.475 E.02064
G1 X160.135 Y115.338 E.02064
G1 X159.507 Y115.13 E.02074
G1 X158.93 Y114.868 E.01987
G1 X158.294 Y114.501 E.02302
G1 X157.79 Y113.978 E.02277
G1 X157.577 Y113.689 E.01126
G1 X157.54 Y113.596 E.00314
G1 X157.346 Y114.042 E.01525
G1 X156.874 Y114.6 E.02292
G1 X156.231 Y115.031 E.02427
G1 X155.485 Y115.307 E.02494
G1 X154.807 Y115.452 E.02174
G1 X153.583 Y115.532 E.03846
G1 X152.934 Y115.482 E.02041
G1 X151.865 Y115.236 E.03439
G1 X151.142 Y114.962 E.02424
G1 X150.553 Y114.66 E.02075
G1 X150.136 Y114.344 E.0164
G1 X149.788 Y113.976 E.01588
G1 X149.803 Y114.507 E.01666
G1 X149.774 Y114.968 E.01448
G1 X149.602 Y115.214 E.00941
G1 X149.348 Y115.335 E.00882
G1 X148.852 Y115.43 E.01583
G1 X148.336 Y115.437 E.01618
G1 X147.906 Y115.333 E.01387
G1 X147.6 Y115.146 E.01124
G1 X147.237 Y114.757 E.01668
G1 X146.812 Y115.049 E.01617
G1 X146.543 Y115.199 E.00966
G1 X146.054 Y115.371 E.01625
G1 X145.451 Y115.495 E.0193
G1 X144.84 Y115.539 E.01921
G1 X144.222 Y115.508 E.0194
G1 X143.592 Y115.404 E.02002
G1 X142.743 Y115.107 E.0282
G1 X142.127 Y114.793 E.02168
G1 X141.509 Y114.36 E.02366
G1 X140.972 Y113.839 E.02346
G1 X140.525 Y113.235 E.02356
G1 X140.24 Y112.686 E.01939
G1 X140.242 Y114.819 E.06688
G1 X140.154 Y115.122 E.00989
G1 X139.933 Y115.324 E.00939
G1 X139.676 Y115.385 E.00828
G1 X137.7 Y115.382 E.06196
G1 X137.782 Y116.063 E.02151
G1 X137.751 Y116.761 E.02191
G1 X137.618 Y117.474 E.02274
G1 X137.421 Y117.999 E.01758
G1 X137.188 Y118.445 E.01578
G1 X136.903 Y118.856 E.01568
G1 X136.529 Y119.263 E.01733
G1 X135.873 Y119.745 E.02552
G1 X135.308 Y120.029 E.01983
G1 X134.805 Y120.199 E.01665
G1 X133.515 Y120.454 E.04123
G1 X132.582 Y120.465 E.02926
G1 X132.075 Y120.412 E.01598
G1 X131.158 Y120.186 E.02961
G1 X130.278 Y119.782 E.03036
G1 X129.554 Y119.268 E.02784
G1 X129.096 Y118.843 E.01959
G1 X128.645 Y118.138 E.02624
G1 X128.369 Y117.422 E.02406
G1 X128.235 Y116.661 E.02423
G1 X128.251 Y115.683 E.03067
G1 X128.286 Y115.514 E.00541
;WIDTH:0.411946
G1 X128.469 Y115.286 E.00897
G1 X128.193 Y115.381 E.00896
;WIDTH:0.419999
G1 X127.089 Y115.375 E.03462
G1 X126.363 Y115.313 E.02285
G1 X126.082 Y115.207 E.00942
G1 X125.894 Y114.91 E.01102
G1 X125.464 Y115.175 E.01584
G1 X124.952 Y115.368 E.01716
G1 X124.321 Y115.498 E.0202
G1 X123.695 Y115.541 E.01967
G1 X123.063 Y115.509 E.01984
G1 X122.416 Y115.404 E.02055
G1 X121.567 Y115.095 E.02833
G1 X120.841 Y114.704 E.02585
G1 X120.124 Y114.143 E.02854
G1 X119.656 Y113.618 E.02205
G1 X119.315 Y113.07 E.02024
G1 X119.332 Y114.822 E.05494
G1 X119.248 Y115.125 E.00986
G1 X119.055 Y115.314 E.00847
G1 X118.799 Y115.392 E.00839
G1 X117.544 Y115.35 E.03937
G1 X117.31 Y115.29 E.00757
G1 X116.959 Y115.097 E.01256
G1 X116.698 Y114.853 E.0112
G1 X116.458 Y114.477 E.01399
G1 X116.339 Y114.052 E.01384
G1 X116.274 Y109.385 E.14634
G1 X116.066 Y108.881 E.0171
G1 X115.756 Y108.533 E.01461
G1 X115.322 Y108.329 E.01504
G1 X114.928 Y108.279 E.01245
G1 X114.316 Y108.279 E.01919
G1 X113.805 Y108.417 E.0166
G1 X113.448 Y108.684 E.01398
G1 X113.177 Y109.135 E.0165
G1 X113.096 Y109.382 E.00815
G1 X113.063 Y114.823 E.1706
G1 X112.996 Y115.086 E.00851
G1 X112.829 Y115.277 E.00795
G1 X112.562 Y115.381 E.00898
G1 X112.497 Y115.385 E.00204
G1 X110.603 Y115.385 E.05938
G1 X110.398 Y115.347 E.00654
G1 X110.223 Y115.239 E.00645
G1 X110.059 Y114.976 E.00972
G1 X110.04 Y114.332 E.0202
G1 X110.049 Y113.129 E.03772
G1 X109.81 Y113.594 E.01639
G1 X109.42 Y114.127 E.02071
G1 X108.874 Y114.646 E.02362
G1 X108.233 Y115.049 E.02374
G1 X107.514 Y115.325 E.02415
G1 X106.742 Y115.477 E.02467
G1 X105.933 Y115.517 E.0254
G1 X105.145 Y115.476 E.02474
G1 X104.382 Y115.328 E.02437
G1 X103.572 Y115.015 E.02723
G1 X103.02 Y114.671 E.02039
G1 X102.459 Y114.157 E.02386
G1 X102.001 Y113.534 E.02424
G1 X101.656 Y112.813 E.02506
G1 X101.613 Y112.678 E.00444
G1 X101.417 Y113.151 E.01605
G1 X100.853 Y113.957 E.03084
G1 X100.183 Y114.61 E.02933
G1 X99.289 Y115.205 E.03367
G1 X98.505 Y115.54 E.02673
G1 X97.577 Y115.761 E.02991
G1 X96.624 Y115.813 E.02993
G1 X95.678 Y115.694 E.02989
G1 X94.768 Y115.408 E.02991
G1 X93.924 Y114.964 E.0299
G1 X93.173 Y114.376 E.02991
G1 X92.772 Y113.932 E.01876
G1 X92.479 Y113.582 E.01431
G1 X92.041 Y112.85 E.02675
G1 X91.697 Y111.96 E.02992
G1 X91.518 Y111.023 E.02991
G1 X91.509 Y110.07 E.02988
G1 X91.625 Y109.384 E.02181
G1 X91.711 Y109.002 E.01228
G1 X92.101 Y108.152 E.02932
G1 X91.569 Y108.331 E.0176
G1 X91.107 Y108.574 E.01637
G1 X90.746 Y108.882 E.01488
G1 X90.514 Y109.329 E.01579
G1 X90.42 Y109.824 E.0158
G1 X90.37 Y114.824 E.15678
G1 X90.318 Y115.056 E.00745
G1 X90.149 Y115.268 E.0085
G1 X89.902 Y115.377 E.00847
G1 X87.978 Y115.385 E.06033
G1 X87.735 Y115.33 E.00781
G1 X87.515 Y115.144 E.00903
G1 X87.419 Y114.908 E.00799
G1 X87.412 Y114.82 E.00277
G1 X87.413 Y105.999 E.27658
G1 X87.468 Y105.755 E.00784
G1 X87.66 Y105.531 E.00925
G1 X87.881 Y105.442 E.00747
G1 X89.1 Y105.471 E.03823
G1 X89.702 Y105.556 E.01906
G1 X89.971 Y105.672 E.00919
G1 X90.117 Y105.963 E.01021
G1 X90.569 Y105.592 E.01833
G1 X91.044 Y105.402 E.01604
G1 X91.396 Y105.305 E.01145
G1 X93.031 Y105.319 E.05127
G1 X93.191 Y105.344 E.00508
G1 X93.411 Y105.471 E.00796
G1 X93.592 Y105.908 E.01483
G1 X93.585 Y106.335 E.01339
G1 X93.923 Y106.037 E.01413
G1 X94.67 Y105.626 E.02673
G1 X95.579 Y105.32 E.03007
G1 X96.523 Y105.183 E.02991
G1 X97.476 Y105.217 E.0299
G1 X98.408 Y105.42 E.02991
G1 X99.289 Y105.787 E.02992
G1 X100.09 Y106.305 E.02991
G1 X100.786 Y106.957 E.0299
G1 X101.35 Y107.725 E.02988
G1 X101.33 Y106.042 E.05277
G1 X101.357 Y105.861 E.00574
G1 X101.578 Y105.567 E.01153
G1 X101.825 Y105.473 E.00829
G1 X102.481 Y105.391 E.02073
G1 X102.675 Y105.4 E.00609
G1 X103.178 Y105.515 E.01618
G1 X103.708 Y105.853 E.01971
G1 X103.847 Y105.991 E.00614
G1 X104.153 Y106.424 E.01662
G1 X104.223 Y106.56 E.0048
G1 X104.257 Y106.743 E.00584
G1 X104.321 Y111.412 E.14641
M73 P0 R69
G1 X104.544 Y111.957 E.01846
G1 X104.842 Y112.288 E.01396
G1 X105.268 Y112.49 E.01478
G1 X105.873 Y112.539 E.01903
G1 X106.422 Y112.53 E.01722
G1 X106.857 Y112.396 E.01427
G1 X107.157 Y112.164 E.01189
G1 X107.42 Y111.709 E.01648
G1 X107.5 Y111.445 E.00865
G1 X107.533 Y105.995 E.17088
G1 X107.597 Y105.738 E.0083
G1 X107.766 Y105.542 E.00811
G1 X108.036 Y105.437 E.00908
G1 X109.99 Y105.433 E.06127
G1 X110.252 Y105.498 E.00846
G1 X110.466 Y105.693 E.00908
G1 X110.556 Y106.001 E.01006
G1 X110.551 Y107.706 E.05346
G1 X110.787 Y107.237 E.01646
G1 X111.22 Y106.665 E.02249
G1 X111.831 Y106.133 E.0254
G1 X112.543 Y105.734 E.02559
G1 X113.342 Y105.463 E.02645
G1 X114.207 Y105.31 E.02754
G1 X114.791 Y105.294 E.01832
G1 X115.819 Y105.422 E.03248
G1 X116.357 Y105.574 E.01753
G1 X116.847 Y105.776 E.01662
G1 X117.329 Y106.064 E.01761
G1 X117.792 Y106.371 E.01742
G1 X118.179 Y106.69 E.01573
G1 X118.527 Y107.161 E.01836
G1 X118.737 Y107.483 E.01205
G1 X119.022 Y108.112 E.02165
G1 X119.101 Y108.404 E.00948
G1 X119.25 Y108.014 E.01309
G1 X119.657 Y107.284 E.02621
G1 X119.977 Y106.872 E.01636
G1 X120.367 Y106.484 E.01725
G1 X120.785 Y106.167 E.01645
G1 X121.242 Y105.905 E.01652
G1 X121.732 Y105.697 E.01669
G1 X122.729 Y105.45 E.03221
G1 X123.344 Y105.385 E.01939
G1 X124.52 Y105.404 E.03688
G1 X125.107 Y105.535 E.01886
G1 X125.405 Y105.632 E.00983
G1 X125.89 Y105.91 E.01753
G1 X125.847 Y105.355 E.01745
G1 X125.822 Y104.516 E.02632
G1 X125.839 Y103.432 E.03399
G1 X125.913 Y103.161 E.00881
G1 X126.208 Y102.757 E.01568
G1 X126.602 Y102.404 E.01659
G1 X126.835 Y102.284 E.00822
G1 X126.971 Y102.267 E.0043
G1 X128.198 Y102.267 E.03847
G1 X128.472 Y102.338 E.00887
G1 X128.67 Y102.521 E.00845
G1 X128.763 Y102.8 E.00922
G1 X128.761 Y107.868 E.1589
G1 X128.98 Y107.457 E.0146
G1 X129.321 Y106.966 E.01874
G1 X129.782 Y106.434 E.02207
G1 X130.519 Y105.955 E.02756
G1 X131.185 Y105.651 E.02295
G1 X131.878 Y105.442 E.0227
G1 X132.588 Y105.338 E.0225
G1 X133.153 Y105.339 E.01772
G1 X134.029 Y105.451 E.02769
G1 X134.739 Y105.663 E.02323
G1 X134.892 Y105.727 E.0052
G1 X135.336 Y105.216 E.02123
G1 X135.56 Y105.059 E.00858
G1 X135.755 Y105.021 E.00623
G1 X135.998 Y105.072 E.00779
G1 X136.477 Y105.298 E.01661
G1 X136.789 Y105.523 E.01206
G1 X137.051 Y105.82 E.01242
;WIDTH:0.422691
G1 X137.239 Y106.197 E.0133
;WIDTH:0.427946
G1 X137.303 Y106.451 E.00839
G1 X137.309 Y105.753 E.02235
;WIDTH:0.419999
G1 X137.316 Y103.441 E.07249
G1 X137.386 Y103.169 E.00881
G1 X137.72 Y102.718 E.0176
G1 X138.122 Y102.371 E.01665
G1 X138.37 Y102.272 E.00837
G1 X139.676 Y102.267 E.04095
G1 X139.942 Y102.333 E.00859
G1 X140.144 Y102.514 E.0085
G1 X140.24 Y102.784 E.00898
G1 X140.24 Y108.155 E.1684
G1 X140.729 Y107.323 E.03026
G1 X141.293 Y106.706 E.02621
G1 X141.749 Y106.336 E.01841
G1 X142.486 Y105.908 E.02672
G1 X143.038 Y105.672 E.01882
G1 X143.732 Y105.471 E.02265
G1 X144.168 Y105.369 E.01404
G1 X145.166 Y105.363 E.03129
G1 X145.718 Y105.441 E.01748
G1 X146.259 Y105.591 E.0176
G1 X146.79 Y105.859 E.01865
G1 X146.909 Y105.947 E.00464
G1 X146.958 Y105.807 E.00465
G1 X147.21 Y105.561 E.01104
G1 X147.521 Y105.495 E.00997
G1 X148.09 Y105.444 E.01791
G1 X149.241 Y105.433 E.03609
G1 X149.501 Y105.496 E.00839
G1 X149.689 Y105.653 E.00768
G1 X149.807 Y106 E.01149
G1 X149.805 Y107.296 E.04064
G1 X149.925 Y107.001 E.00999
G1 X150.051 Y106.813 E.0071
G1 X150.548 Y106.322 E.02191
G1 X151.17 Y105.886 E.02382
G1 X151.866 Y105.571 E.02395
G1 X152.557 Y105.398 E.02233
G1 X153.645 Y105.314 E.03421
G1 X154.644 Y105.405 E.03145
G1 X155.617 Y105.659 E.03153
G1 X156.424 Y106.014 E.02764
G1 X156.727 Y106.19 E.01099
G1 X157.688 Y107.04 E.04023
G1 X157.766 Y107.151 E.00425
M204 S1000
;WIPE_START
G1 F8640
G1 X158.009 Y106.804 E-.09782
G1 X158.144 Y106.636 E-.04976
G1 X158.646 Y106.211 E-.15188
G1 X159.12 Y105.913 E-.12928
G1 X159.899 Y105.559 E-.19757
G1 X160.597 Y105.385 E-.1661
G1 X160.63 Y105.383 E-.00759
;WIPE_END
G1 Z.6 F720
G1 X157.906 Y111.79 F10800
G1 Z.2 F720
G1 E.8 F2100
M204 S800
G1 F1200
G1 X157.911 Y111.726 E.00201
G1 X157.801 Y111.134 E.01888
;WIDTH:0.465267
G1 X157.666 Y110.787 E.01308
